src/images/std-icons/std-money_transfer.svg

<svg xmlns="http://www.w3.org/2000/svg" width="512" height="512" viewBox="0 0 512 512">
  <title>money transfer</title>
  <circle cx="298.844" cy="298.875" r="21.333" fill="#000" fill-rule="nonzero"/>
  <path fill="#000" fill-rule="nonzero" d="M426.843733,181.54176 C426.183215,163.311946 410.944884,149.026011 392.7104,149.54176 L277.5104,149.54176 L277.5104,192.208427 C277.5104,203.990501 267.959141,213.54176 256.177067,213.54176 C244.394992,213.54176 234.843733,203.990501 234.843733,192.208427 L234.843733,149.54176 L119.643733,149.54176 C101.409249,149.026011 86.1709183,163.311946 85.5104,181.54176 L85.5104,373.54304 C86.1709183,391.772854 101.409249,406.058789 119.643733,405.54304 L392.7104,405.54304 C410.944884,406.058789 426.183215,391.772854 426.843733,373.54304 L426.843733,341.54304 L298.843733,341.54304 C275.279584,341.54304 256.177067,322.440523 256.177067,298.876373 C256.177067,275.312224 275.279584,256.209707 298.843733,256.209707 L426.843733,256.209707 L426.843733,181.54176 Z"/>
  <path fill="#000" fill-rule="nonzero" d="M277.5104,115.709653 L286.34368,124.542933 C291.732426,129.931718 299.586716,132.036298 306.947913,130.063899 C314.309111,128.0915 320.058876,122.341776 322.031327,114.980592 C324.003778,107.619409 321.899253,99.7651046 316.510507,94.37632 L271.260373,49.1264 C267.262291,45.1257457 261.838609,42.8773296 256.182648,42.8758485 C250.526687,42.8743689 245.101829,45.1199457 241.101653,49.1185067 L241.09376,49.1264 L195.84384,94.37632 C187.513265,102.7066 187.513026,116.212892 195.843307,124.543467 C204.173587,132.874041 217.679879,132.87428 226.010453,124.544 L234.843733,115.71072 L234.843733,149.54176 L277.5104,149.54176 L277.5104,115.709653 Z"/>
</svg>

<svg xmlns="http://www.w3.org/2000/svg" viewBox="0 0 512 512">
  <title>
    money transfer
  </title>
  <circle cx="298.84" cy="298.88" r="21.33"/>
  <path d="M426.84 181.54a33.22 33.22 0 0 0-34.13-32h-115.2v42.67a21.33 21.33 0 0 1-42.67 0v-42.67h-115.2a33.22 33.22 0 0 0-34.13 32v192a33.22 33.22 0 0 0 34.13 32h273.07a33.22 33.22 0 0 0 34.13-32v-32h-128a42.67 42.67 0 0 1 0-85.33h128v-74.67z"/>
  <path d="M277.51 115.71l8.83 8.83a21.33 21.33 0 1 0 30.17-30.16l-45.25-45.25a21.32 21.32 0 0 0-30.16-.01l-45.26 45.26a21.33 21.33 0 1 0 30.17 30.16l8.83-8.83v33.83h42.67v-33.83z"/>
</svg>
